svg/font.svg

<svg xmlns="http://www.w3.org/2000/svg" viewBox="0 0 63 64" enable-background="new 0 0 63 64"><style type="text/css">.st0{fill:#343434;}</style><title>font</title><desc>Created with Sketch.</desc><path class="st0" d="M59.1 60.1c-1.2-.3-2.4-.6-3.6-.8l-22.7-58.4h-2.6l-22.8 58.4c-2.2.5-4.3 1.2-6.5 2.1v2.6h20v-2.6c-2.6-1.1-5.2-1.8-7.7-2.1l5.9-16.2h21.5l6.1 16.2c-1.2.2-2.4.5-3.7.9-1.3.4-2.5.8-3.7 1.2v2.6h23v-2.6c-.9-.6-2-1-3.2-1.3zm-38.2-21.6l6.9-18.6 2.2-7.8h.2l1.7 7.6 7.1 18.8h-18.1z"/></svg>

<?xml version="1.0" encoding="utf-8"?>
<!-- Generator: Adobe Illustrator 21.0.0, SVG Export Plug-In . SVG Version: 6.00 Build 0)  -->
<svg version="1.1" id="Layer_1" xmlns="http://www.w3.org/2000/svg" xmlns:xlink="http://www.w3.org/1999/xlink" x="0px" y="0px"
	 viewBox="0 0 63 64" style="enable-background:new 0 0 63 64;" xml:space="preserve">
<style type="text/css">
	.st0{fill:#343434;}
</style>
<title>font</title>
<desc>Created with Sketch.</desc>
<path class="st0" d="M59.1,60.1c-1.2-0.3-2.4-0.6-3.6-0.8L32.8,0.9h-2.6L7.4,59.3c-2.2,0.5-4.3,1.2-6.5,2.1V64h20v-2.6
	c-2.6-1.1-5.2-1.8-7.7-2.1l5.9-16.2h21.5l6.1,16.2c-1.2,0.2-2.4,0.5-3.7,0.9c-1.3,0.4-2.5,0.8-3.7,1.2V64h23v-2.6
	C61.4,60.8,60.3,60.4,59.1,60.1z M20.9,38.5l6.9-18.6l2.2-7.8h0.2l1.7,7.6L39,38.5H20.9z"/>
</svg>
